P2
100 100
255
0 0 0 0 0 0 0 0 0 0 0 0 0 0 0 0 0 0 0 0 0 0 0 2 2 2 2 2 2 2 2 2 2 2 2 2 2 2 2 2 2 2 2 2 2 2 2 2 2 2 2 2 2 2 2 2 2 2 2 2 2 2 2 2 2 2 2 2 2 2 2 2 2 2 2 2 2 2 2 2 2 2 2 2 2 2 2 2 2 2 2 2 2 2 2 2 2 2 2 2
0 0 0 0 0 0 0 0 0 0 0 0 0 0 0 0 0 0 0 0 0 0 2 2 2 2 2 2 2 2 2 2 2 2 2 2 2 2 2 2 2 2 2 2 2 2 2 2 2 2 2 2 2 2 2 2 2 2 2 2 2 2 2 2 2 2 2 2 2 2 2 2 2 2 2 2 2 2 2 2 2 2 2 2 2 2 2 2 2 2 2 2 2 2 2 2 2 2 2 2
0 0 0 0 0 0 0 0 0 0 0 0 0 0 0 0 0 0 0 0 0 2 2 2 2 2 2 2 2 2 2 2 2 2 2 2 2 2 2 2 2 2 2 2 2 2 2 2 2 2 2 2 2 2 2 2 2 2 2 2 2 2 2 2 2 2 2 2 2 2 2 2 2 2 2 2 2 2 2 2 2 2 2 2 2 2 2 2 2 2 2 2 2 2 2 2 2 2 2 2
0 0 0 0 0 0 0 0 0 0 0 0 0 0 0 0 0 0 0 0 2 2 2 2 2 2 2 2 2 2 2 2 2 2 2 2 2 2 2 2 2 2 2 2 2 2 2 2 2 2 2 2 2 2 2 2 2 2 2 2 2 2 2 2 2 2 2 2 2 2 2 2 2 2 2 2 2 2 2 2 2 2 2 2 2 2 2 2 2 2 2 2 2 2 2 2 2 2 2 2
0 0 0 0 0 0 0 0 0 0 0 0 0 0 0 0 0 0 0 2 2 2 2 2 2 2 2 2 2 2 2 2 2 2 2 2 2 2 2 2 2 2 2 2 2 2 2 2 2 2 2 2 2 2 2 2 2 2 2 2 2 2 2 2 2 2 2 2 2 2 2 2 2 2 2 2 2 2 2 2 2 2 2 2 2 2 2 2 2 2 2 2 2 2 2 2 2 2 2 2
0 0 0 0 0 0 0 0 0 0 0 0 0 0 0 0 0 0 2 2 2 2 2 2 2 2 2 2 2 2 2 2 2 2 2 2 2 2 2 2 2 2 2 2 2 2 2 2 2 2 2 2 2 2 2 2 2 2 2 2 2 2 2 2 2 2 2 2 2 2 2 2 2 2 2 2 2 2 2 2 2 2 2 2 2 2 2 2 2 2 2 2 2 2 2 2 2 2 2 2
0 0 0 0 0 0 0 0 0 0 0 0 0 0 0 0 0 2 2 2 2 2 2 2 2 2 2 2 2 2 2 2 2 2 2 2 2 2 2 2 2 2 2 2 2 2 5 5 5 5 5 5 5 5 2 2 2 2 2 2 2 2 2 2 2 2 2 2 2 2 2 2 2 2 2 2 2 2 2 2 2 2 2 2 2 2 2 2 2 2 2 2 2 2 2 2 2 2 2 2
0 0 0 0 0 0 0 0 0 0 0 0 0 0 0 0 2 2 2 2 2 2 2 2 2 2 2 2 2 2 2 2 2 2 2 2 2 2 5 5 5 5 5 5 5 5 5 5 5 5 5 5 5 5 5 5 5 5 5 5 5 5 2 2 2 2 2 2 2 2 2 2 2 2 2 2 2 2 2 2 2 2 2 2 2 2 2 2 2 2 2 2 2 2 2 2 2 2 2 2
0 0 0 0 0 0 0 0 0 0 0 0 0 0 0 2 2 2 2 2 2 2 2 2 2 2 2 2 2 2 2 2 2 2 5 5 5 5 5 5 5 5 5 5 5 5 5 5 5 5 5 5 5 5 5 5 5 5 5 5 5 5 5 5 5 5 2 2 2 2 2 2 2 2 2 2 2 2 2 2 2 2 2 2 2 2 2 2 2 2 2 2 2 2 2 2 2 2 2 2
0 0 0 0 0 0 0 0 0 0 0 0 0 0 2 2 2 2 2 2 2 2 2 2 2 2 2 2 2 2 2 5 5 5 5 5 5 5 5 5 5 5 5 5 5 5 5 5 5 5 5 5 5 5 5 5 5 5 5 5 5 5 5 5 5 5 5 5 5 2 2 2 2 2 2 2 2 2 2 2 2 2 2 2 2 2 2 2 2 2 2 2 2 2 2 2 2 2 2 2
0 0 0 0 0 0 0 0 0 0 0 0 0 0 2 2 2 2 2 2 2 2 2 2 2 2 2 2 2 5 5 5 5 5 5 5 5 5 5 5 5 5 5 5 5 5 5 5 5 5 5 5 5 5 5 5 5 5 5 5 5 5 5 5 5 5 5 5 5 5 5 2 2 2 2 2 2 2 2 2 2 2 2 2 2 2 2 2 2 2 2 2 2 2 2 2 2 2 2 2
0 0 0 0 0 0 0 0 0 0 0 0 0 2 2 2 2 2 2 2 2 2 2 2 2 2 5 5 5 5 5 5 5 5 5 5 5 5 5 5 5 5 5 5 5 5 5 5 5 5 5 5 5 5 5 5 7 7 7 7 7 7 7 7 7 5 5 5 5 5 5 5 5 5 2 2 2 2 2 2 2 2 2 2 2 2 2 2 2 2 2 2 2 2 2 2 2 2 2 2
0 0 0 0 0 0 0 0 0 0 0 0 2 2 2 2 2 2 2 2 2 2 2 2 5 5 5 5 5 5 5 5 5 5 5 5 5 5 5 5 5 5 5 5 5 5 5 5 5 5 5 5 7 7 7 7 7 7 7 10 10 10 10 10 7 7 7 7 7 5 5 5 5 5 5 5 2 2 2 2 2 2 2 2 2 2 2 2 2 2 2 2 2 2 2 2 2 2 2 2
0 0 0 0 0 0 0 0 0 0 0 0 2 2 2 2 2 2 2 2 2 2 2 5 5 5 5 5 5 5 5 5 5 5 5 5 5 5 5 5 5 5 5 5 5 5 5 5 5 5 7 7 7 7 7 7 7 10 12 20 17 20 10 10 10 7 7 7 7 7 7 5 5 5 5 5 5 2 2 2 2 2 2 2 2 2 2 2 2 2 2 2 2 2 2 2 2 2 2 2
0 0 0 0 0 0 0 0 0 0 0 2 2 2 2 2 2 2 2 2 2 5 5 5 5 5 5 5 5 5 5 5 5 5 5 5 5 5 5 5 5 5 5 5 5 5 5 5 7 7 7 7 7 7 7 7 10 10 12 15 25 17 12 12 10 10 7 7 7 7 7 7 5 5 5 5 5 5 5 2 2 2 2 2 2 2 2 2 2 2 2 2 2 2 2 2 2 2 2 2
0 0 0 0 0 0 0 0 0 0 2 2 2 2 2 2 2 2 2 5 5 5 5 5 5 5 5 5 5 5 5 5 5 5 5 5 5 5 5 5 5 5 5 5 5 5 7 7 7 7 7 7 7 7 7 10 10 10 12 12 22 43 15 12 12 12 10 7 7 7 7 7 7 7 5 5 5 5 5 5 5 2 2 2 2 2 2 2 2 2 2 2 2 2 2 2 2 2 2 2
0 0 0 0 0 0 0 0 0 0 2 2 2 2 2 2 2 2 5 5 5 5 5 5 5 5 5 5 5 5 5 5 5 5 5 5 5 5 5 5 5 5 5 5 5 7 7 7 7 7 7 7 7 7 10 10 10 10 12 15 25 30 22 17 15 20 17 10 7 7 7 7 7 7 7 5 5 5 5 5 5 5 2 2 2 2 2 2 2 2 2 2 2 2 2 2 2 2 2 2
0 0 0 0 0 0 0 0 0 2 2 2 2 2 2 2 2 5 5 5 5 5 5 5 5 5 5 5 5 5 5 5 5 5 5 5 5 5 5 5 5 5 5 7 7 7 7 7 7 7 7 7 7 7 10 10 10 10 12 15 17 22 45 25 40 33 15 12 10 7 7 7 7 7 7 7 5 5 5 5 5 5 5 2 2 2 2 2 2 2 2 2 2 2 2 2 2 2 2 2
0 0 0 0 0 0 0 0 0 2 2 2 2 2 2 5 5 5 5 5 5 5 5 5 5 5 5 5 5 5 5 5 5 5 5 5 5 5 5 5 5 5 7 7 7 7 7 7 7 7 7 7 7 10 10 10 10 12 15 15 17 22 30 38 22 20 15 12 10 10 7 7 7 7 7 7 7 5 5 5 5 5 5 5 5 2 2 2 2 2 2 2 2 2 2 2 2 2 2 2
0 0 0 0 0 0 0 0 2 2 2 2 2 2 5 5 5 5 5 5 5 5 5 5 5 5 5 5 5 5 5 5 5 5 5 5 5 5 5 5 5 7 7 7 7 7 7 7 7 7 7 7 10 10 10 10 10 12 15 17 20 25 53 45 22 17 15 12 10 10 10 7 7 7 7 7 7 7 5 5 5 5 5 5 5 5 2 2 2 2 2 2 2 2 2 2 2 2 2 2
0 0 0 0 0 0 0 2 2 2 2 2 2 5 5 5 5 5 5 5 5 5 5 5 5 5 5 5 5 5 5 5 5 5 5 5 5 5 5 7 7 7 7 7 7 7 7 7 7 7 7 10 10 10 10 10 12 15 20 20 28 61 73 53 40 20 17 15 12 10 10 10 7 7 7 7 7 7 7 5 5 5 5 5 5 5 5 2 2 2 2 2 2 2 2 2 2 2 2 2
0 0 0 0 0 0 0 2 2 2 2 2 5 5 5 5 5 5 5 5 5 5 5 5 5 5 5 5 5 5 5 5 5 5 5 5 5 5 7 7 7 7 7 7 7 7 7 7 7 7 10 10 10 10 10 12 17 20 43 28 33 56 0 0 33 25 22 25 12 10 10 10 10 7 7 7 7 7 7 7 5 5 5 5 5 5 5 5 2 2 2 2 2 2 2 2 2 2 2 2
0 0 0 0 0 0 0 2 2 2 2 5 5 5 5 5 5 5 5 5 5 5 5 5 5 5 5 5 5 5 5 5 5 5 5 5 5 7 7 7 7 7 7 7 7 7 7 7 7 10 10 10 10 12 12 15 20 33 58 73 102 0 0 0 66 33 84 22 15 12 10 10 10 10 10 7 7 7 7 7 5 5 5 5 5 5 5 5 5 2 2 2 2 2 2 2 2 2 2 2
0 0 0 0 0 0 2 2 2 2 5 5 5 5 5 5 5 5 5 5 5 5 5 5 5 5 5 5 5 5 5 5 5 5 5 5 7 7 7 7 7 7 7 7 7 7 7 10 10 10 10 12 12 12 15 15 17 22 38 0 0 0 0 0 0 0 45 28 15 12 12 10 10 10 10 10 7 7 7 7 7 5 5 5 5 5 5 5 5 5 2 2 2 2 2 2 2 2 2 2
0 0 0 0 0 0 2 2 2 2 5 5 5 5 5 5 5 5 5 5 5 5 5 5 5 5 5 5 5 5 5 5 5 5 5 7 7 7 7 7 7 7 7 7 7 7 10 10 10 12 12 12 12 15 15 15 17 25 48 0 0 0 0 0 0 0 33 20 17 15 12 12 10 10 10 10 10 10 7 7 7 7 5 5 5 5 5 5 5 5 2 2 2 2 2 2 2 2 2 2
0 0 0 0 0 2 2 2 2 5 5 5 5 5 5 5 5 5 5 5 5 5 5 5 5 5 5 5 5 5 5 5 5 7 7 7 7 7 7 7 7 7 7 7 10 10 10 12 12 12 12 12 15 15 15 17 20 28 63 0 0 0 0 0 0 0 61 22 17 15 15 12 12 12 12 10 10 10 10 7 7 7 5 5 5 5 5 5 5 5 5 2 2 2 2 2 2 2 2 2
0 0 0 0 0 2 2 2 5 5 5 5 5 5 5 5 5 5 5 5 5 5 5 5 5 5 5 5 5 5 5 5 7 7 7 7 7 7 7 7 7 7 10 10 10 12 15 15 15 17 15 15 15 17 17 20 22 25 45 0 0 0 0 0 0 0 30 22 20 17 17 15 12 12 12 12 12 12 12 10 7 7 7 5 5 5 5 5 5 5 5 5 2 2 2 2 2 2 2 2
0 0 0 0 2 2 2 5 5 5 5 5 5 5 5 5 5 5 5 5 5 5 5 5 5 5 5 5 5 5 5 7 7 7 7 7 7 7 7 7 10 10 10 10 12 20 40 22 25 35 20 17 20 35 30 25 25 28 35 68 0 0 0 0 0 43 30 28 22 20 25 20 17 15 15 15 15 17 48 12 10 7 7 5 5 5 5 5 5 5 5 5 5 2 2 2 2 2 2 2
0 0 0 0 2 2 2 5 5 5 5 5 5 5 5 5 5 5 5 5 5 5 5 5 5 5 5 5 5 5 7 7 7 7 7 7 7 7 10 10 10 10 10 12 12 17 25 73 68 30 25 22 22 48 76 35 0 150 247 76 0 170 0 130 0 0 53 43 0 30 53 99 20 17 17 17 17 20 35 15 12 10 7 7 5 5 5 5 5 5 5 5 5 2 2 2 2 2 2 2
0 0 0 0 2 2 5 5 5 5 5 5 5 5 5 5 5 5 5 5 5 5 5 5 5 5 5 5 5 7 7 7 7 7 7 10 10 10 10 10 10 10 12 12 15 17 45 43 114 61 91 30 30 86 0 73 0 0 0 0 0 0 0 0 0 0 0 0 0 53 0 135 25 22 25 28 22 25 43 20 15 10 7 7 5 5 5 5 5 5 5 5 5 5 2 2 2 2 2 2
0 0 0 2 2 2 5 5 5 5 5 5 5 5 5 5 5 5 5 5 5 5 5 5 5 5 5 7 7 7 7 7 7 10 10 10 10 10 10 10 10 12 12 12 15 17 22 33 91 0 0 51 0 114 0 0 0 0 0 0 0 0 0 0 0 0 0 0 0 0 0 89 0 28 35 232 40 48 68 25 15 10 10 7 7 5 5 5 5 5 5 5 5 5 2 2 2 2 2 2
0 0 0 2 2 5 5 5 5 5 5 5 5 5 5 5 5 5 5 5 5 5 5 5 5 5 7 7 7 7 10 10 10 10 10 10 10 10 10 10 12 12 12 12 15 17 20 81 0 0 0 76 0 0 0 0 0 0 0 0 0 0 0 0 0 0 0 0 0 0 0 0 127 40 94 0 0 0 33 43 12 10 10 7 7 5 5 5 5 5 5 5 5 5 5 2 2 2 2 2
0 0 0 2 2 5 5 5 5 5 5 5 5 5 5 5 5 5 5 5 5 5 5 5 7 7 7 7 10 10 10 10 10 10 10 10 10 10 10 12 12 12 12 15 17 20 22 30 71 0 0 0 0 0 0 0 0 0 0 0 0 0 0 0 0 0 0 0 0 0 0 0 0 0 0 0 0 150 28 17 12 10 10 7 7 7 5 5 5 5 5 5 5 5 5 2 2 2 2 2
0 0 0 2 5 5 5 5 5 5 5 5 5 5 5 5 5 5 5 5 5 5 7 7 7 7 10 10 10 10 10 10 10 10 10 10 10 10 12 12 12 12 15 17 22 30 28 66 0 0 0 0 0 0 0 0 0 0 0 0 0 0 0 0 0 0 0 0 0 0 0 0 0 0 0 0 0 43 25 15 12 12 10 10 7 7 5 5 5 5 5 5 5 5 5 5 2 2 2 2
0 0 2 2 5 5 5 5 5 5 5 5 5 5 5 5 5 5 5 5 7 7 7 7 10 10 10 10 10 10 10 10 10 10 10 10 12 12 12 12 12 15 17 53 76 43 38 219 0 0 0 0 0 0 0 0 0 0 0 0 0 0 0 0 0 0 0 0 0 0 0 0 0 0 0 0 43 28 20 15 12 12 10 10 7 7 5 5 5 5 5 5 5 5 5 5 2 2 2 2
0 0 2 5 5 5 5 5 5 5 5 5 5 5 5 5 5 5 7 7 7 7 10 12 15 12 12 12 12 12 12 10 10 10 12 12 12 12 12 15 15 15 20 109 58 0 0 0 0 0 0 0 0 0 0 0 0 0 0 0 0 0 0 0 0 0 0 0 0 0 0 0 0 0 0 0 0 35 25 17 15 12 10 10 7 7 7 5 5 5 5 5 5 5 5 5 5 2 2 2
0 0 2 5 5 5 5 5 5 5 5 5 5 5 5 7 7 7 7 7 10 10 12 15 25 25 15 12 12 12 12 12 15 15 15 15 15 15 15 15 15 17 20 25 38 0 0 0 0 0 0 0 0 0 0 0 0 0 0 0 0 0 0 0 0 0 0 0 0 0 0 0 0 0 0 0 0 0 28 20 20 25 12 10 7 7 7 5 5 5 5 5 5 5 5 5 5 2 2 2
0 0 2 5 5 5 5 5 5 5 5 5 7 7 7 7 7 7 7 10 10 10 12 15 22 28 17 15 15 15 15 17 68 17 17 15 15 15 15 15 17 17 22 137 40 0 0 0 0 0 0 0 0 0 0 0 0 0 0 0 0 0 0 0 0 0 0 0 0 0 0 0 0 0 0 0 0 0 35 71 28 33 12 10 7 7 7 5 5 5 5 5 5 5 5 5 5 2 2 2
0 0 5 5 5 5 5 5 5 7 7 7 7 7 7 7 7 7 10 10 10 12 12 15 28 33 22 20 22 17 20 22 35 22 20 17 17 17 17 17 17 20 38 0 0 0 0 0 0 0 0 0 0 0 0 0 0 0 0 0 0 0 0 0 0 0 0 0 0 0 0 0 0 0 0 0 0 0 0 0 58 56 12 10 7 7 7 7 5 5 5 5 5 5 5 5 5 5 2 2
0 2 5 5 5 5 5 7 7 7 7 7 7 7 7 7 10 10 10 10 10 12 12 15 17 38 61 45 61 25 22 25 38 38 25 25 25 20 20 20 20 22 28 45 0 0 0 0 0 0 0 0 0 0 0 0 0 0 0 0 0 0 0 0 0 0 0 0 0 0 0 0 0 0 0 0 0 0 0 0 30 20 12 10 7 7 7 7 5 5 5 5 5 5 5 5 5 5 2 2
0 2 5 5 5 5 7 7 7 7 7 7 7 7 7 10 10 10 10 10 10 12 12 15 17 22 28 45 61 63 30 33 45 0 43 43 35 25 22 22 22 25 127 0 0 0 0 0 0 0 0 0 0 0 0 0 0 0 0 0 0 0 0 0 0 0 0 0 0 0 0 0 0 0 0 0 0 0 0 33 20 15 12 10 7 7 7 7 5 5 5 5 5 5 5 5 5 5 2 2
0 5 5 5 7 7 7 7 7 7 7 7 7 7 10 10 10 10 10 10 10 12 15 15 17 20 28 63 0 0 53 211 76 0 84 66 181 153 30 25 25 28 86 0 0 0 0 0 0 0 0 0 0 0 0 0 0 0 0 0 0 0 0 0 0 0 0 0 0 0 0 0 0 0 0 0 0 0 0 35 22 15 12 10 7 7 7 7 5 5 5 5 5 5 5 5 5 5 5 2
0 5 5 7 7 7 7 7 7 7 7 7 7 10 10 10 10 10 10 10 12 15 15 15 20 22 33 48 0 0 0 0 0 0 0 0 0 0 51 33 30 33 58 0 0 0 0 0 0 0 0 0 0 0 0 0 0 0 0 0 0 0 0 0 0 0 0 0 0 0 0 0 0 0 0 0 0 0 0 0 43 17 12 10 7 7 7 7 5 5 5 5 5 5 5 5 5 5 5 2
0 5 5 7 7 7 7 7 7 7 7 7 10 10 10 10 10 10 10 12 15 15 15 17 38 28 35 56 0 0 0 0 0 0 0 0 0 0 0 127 35 38 84 0 0 0 0 0 0 0 0 0 0 0 0 0 0 0 0 0 0 0 0 0 0 0 0 0 0 0 0 0 0 0 0 0 0 0 0 140 38 15 10 10 7 7 7 7 7 5 5 5 5 5 5 5 5 5 5 2
0 5 7 7 7 7 7 7 7 7 7 10 10 10 10 10 10 10 12 17 17 17 20 22 28 68 132 0 0 0 0 0 0 0 0 0 0 0 0 0 48 43 0 0 0 0 0 0 0 0 0 0 0 0 0 0 0 0 0 0 0 0 0 0 0 0 0 0 0 0 0 0 0 0 0 0 0 0 0 30 17 12 10 10 7 7 7 7 7 5 5 5 5 5 5 5 5 5 5 2
0 7 7 7 7 7 7 7 7 7 7 10 10 10 12 12 12 12 15 22 25 20 20 25 28 43 0 0 0 0 0 0 0 0 0 0 0 0 0 0 0 53 0 0 0 0 0 0 0 0 0 0 0 0 0 0 0 0 0 0 0 0 0 0 0 0 0 0 0 0 0 0 0 0 0 0 0 0 0 127 17 12 10 10 7 7 7 7 7 5 5 5 5 5 5 5 5 5 5 2
0 7 7 7 7 7 7 7 7 10 10 12 12 12 12 12 15 15 17 22 43 28 33 30 35 73 0 0 0 0 0 0 0 0 0 0 0 0 0 0 0 68 0 0 0 0 0 0 0 0 0 0 0 0 0 0 0 0 0 0 0 0 0 0 0 0 0 0 0 0 0 0 0 0 0 0 0 0 0 20 15 12 10 10 7 7 7 7 7 5 5 5 5 5 5 5 5 5 5 2
0 7 10 10 10 10 10 10 10 12 12 12 12 12 12 15 15 15 20 20 33 53 51 53 48 0 0 0 0 0 0 0 0 0 0 0 0 0 0 0 0 107 0 0 0 0 0 0 0 0 0 0 0 0 0 0 0 0 0 0 0 0 0 0 0 0 0 0 0 0 0 0 0 0 0 0 0 0 84 15 12 12 10 10 7 7 7 7 7 5 5 5 5 5 5 5 5 5 5 2
0 10 10 10 12 12 15 15 20 15 15 15 15 17 17 17 17 28 22 35 35 66 0 0 0 0 0 0 0 0 0 0 0 0 0 0 0 0 0 0 0 0 0 0 0 0 0 0 0 0 0 0 0 0 0 0 0 0 0 0 0 0 0 0 0 0 0 0 0 0 0 0 0 0 0 0 0 165 17 15 12 12 10 10 7 7 7 7 7 5 5 5 5 5 5 5 5 5 5 2
0 12 10 15 15 17 17 28 0 22 20 20 25 22 33 22 25 35 35 53 244 0 0 0 0 0 0 0 0 0 0 0 0 0 0 0 0 0 0 0 0 0 0 0 0 0 0 0 0 0 0 0 0 0 0 0 0 0 0 0 0 0 0 0 0 0 0 0 0 0 0 0 0 0 0 0 30 20 17 15 12 10 10 10 7 7 7 7 7 5 5 5 5 5 5 5 5 5 5 2
0 12 10 15 15 17 17 28 0 22 20 20 25 22 33 22 25 35 35 53 244 0 0 0 0 0 0 0 0 0 0 0 0 0 0 0 0 0 0 0 0 0 0 0 0 0 0 0 0 0 0 0 0 0 0 0 0 0 0 0 0 0 0 0 0 0 0 0 0 0 0 0 0 0 0 0 30 20 17 15 12 10 10 10 7 7 7 7 7 5 5 5 5 5 5 5 5 5 5 2
0 10 10 10 12 12 15 15 20 15 15 15 15 17 17 17 17 28 22 35 35 66 0 0 0 0 0 0 0 0 0 0 0 0 0 0 0 0 0 0 0 0 0 0 0 0 0 0 0 0 0 0 0 0 0 0 0 0 0 0 0 0 0 0 0 0 0 0 0 0 0 0 0 0 0 0 0 165 17 15 12 12 10 10 7 7 7 7 7 5 5 5 5 5 5 5 5 5 5 2
0 7 10 10 10 10 10 10 10 12 12 12 12 12 12 15 15 15 20 20 33 53 51 53 48 0 0 0 0 0 0 0 0 0 0 0 0 0 0 0 0 107 0 0 0 0 0 0 0 0 0 0 0 0 0 0 0 0 0 0 0 0 0 0 0 0 0 0 0 0 0 0 0 0 0 0 0 0 84 15 12 12 10 10 7 7 7 7 7 5 5 5 5 5 5 5 5 5 5 2
0 7 7 7 7 7 7 7 7 10 10 12 12 12 12 12 15 15 17 22 43 28 33 30 35 73 0 0 0 0 0 0 0 0 0 0 0 0 0 0 0 68 0 0 0 0 0 0 0 0 0 0 0 0 0 0 0 0 0 0 0 0 0 0 0 0 0 0 0 0 0 0 0 0 0 0 0 0 0 20 15 12 10 10 7 7 7 7 7 5 5 5 5 5 5 5 5 5 5 2
0 7 7 7 7 7 7 7 7 7 7 10 10 10 12 12 12 12 15 22 25 20 20 25 28 43 0 0 0 0 0 0 0 0 0 0 0 0 0 0 0 53 0 0 0 0 0 0 0 0 0 0 0 0 0 0 0 0 0 0 0 0 0 0 0 0 0 0 0 0 0 0 0 0 0 0 0 0 0 127 17 12 10 10 7 7 7 7 7 5 5 5 5 5 5 5 5 5 5 2
0 5 7 7 7 7 7 7 7 7 7 10 10 10 10 10 10 10 12 17 17 17 20 22 28 68 132 0 0 0 0 0 0 0 0 0 0 0 0 0 48 43 0 0 0 0 0 0 0 0 0 0 0 0 0 0 0 0 0 0 0 0 0 0 0 0 0 0 0 0 0 0 0 0 0 0 0 0 0 30 17 12 10 10 7 7 7 7 7 5 5 5 5 5 5 5 5 5 5 2
0 5 5 7 7 7 7 7 7 7 7 7 10 10 10 10 10 10 10 12 15 15 15 17 38 28 35 56 0 0 0 0 0 0 0 0 0 0 0 127 35 38 84 0 0 0 0 0 0 0 0 0 0 0 0 0 0 0 0 0 0 0 0 0 0 0 0 0 0 0 0 0 0 0 0 0 0 0 0 140 38 15 10 10 7 7 7 7 7 5 5 5 5 5 5 5 5 5 5 2
0 5 5 7 7 7 7 7 7 7 7 7 7 10 10 10 10 10 10 10 12 15 15 15 20 22 33 48 0 0 0 0 0 0 0 0 0 0 51 33 30 33 58 0 0 0 0 0 0 0 0 0 0 0 0 0 0 0 0 0 0 0 0 0 0 0 0 0 0 0 0 0 0 0 0 0 0 0 0 0 43 17 12 10 7 7 7 7 5 5 5 5 5 5 5 5 5 5 5 2
0 5 5 5 7 7 7 7 7 7 7 7 7 7 10 10 10 10 10 10 10 12 15 15 17 20 28 63 0 0 53 211 76 0 84 66 181 153 30 25 25 28 86 0 0 0 0 0 0 0 0 0 0 0 0 0 0 0 0 0 0 0 0 0 0 0 0 0 0 0 0 0 0 0 0 0 0 0 0 35 22 15 12 10 7 7 7 7 5 5 5 5 5 5 5 5 5 5 5 2
0 2 5 5 5 5 7 7 7 7 7 7 7 7 7 10 10 10 10 10 10 12 12 15 17 22 28 45 61 63 30 33 45 0 43 43 35 25 22 22 22 25 127 0 0 0 0 0 0 0 0 0 0 0 0 0 0 0 0 0 0 0 0 0 0 0 0 0 0 0 0 0 0 0 0 0 0 0 0 33 20 15 12 10 7 7 7 7 5 5 5 5 5 5 5 5 5 5 2 2
0 2 5 5 5 5 5 7 7 7 7 7 7 7 7 7 10 10 10 10 10 12 12 15 17 38 61 45 61 25 22 25 38 38 25 25 25 20 20 20 20 22 28 45 0 0 0 0 0 0 0 0 0 0 0 0 0 0 0 0 0 0 0 0 0 0 0 0 0 0 0 0 0 0 0 0 0 0 0 0 30 20 12 10 7 7 7 7 5 5 5 5 5 5 5 5 5 5 2 2
0 0 5 5 5 5 5 5 5 7 7 7 7 7 7 7 7 7 10 10 10 12 12 15 28 33 22 20 22 17 20 22 35 22 20 17 17 17 17 17 17 20 38 0 0 0 0 0 0 0 0 0 0 0 0 0 0 0 0 0 0 0 0 0 0 0 0 0 0 0 0 0 0 0 0 0 0 0 0 0 58 56 12 10 7 7 7 7 5 5 5 5 5 5 5 5 5 5 2 2
0 0 2 5 5 5 5 5 5 5 5 5 7 7 7 7 7 7 7 10 10 10 12 15 22 28 17 15 15 15 15 17 68 17 17 15 15 15 15 15 17 17 22 137 40 0 0 0 0 0 0 0 0 0 0 0 0 0 0 0 0 0 0 0 0 0 0 0 0 0 0 0 0 0 0 0 0 0 35 71 28 33 12 10 7 7 7 5 5 5 5 5 5 5 5 5 5 2 2 2
0 0 2 5 5 5 5 5 5 5 5 5 5 5 5 7 7 7 7 7 10 10 12 15 25 25 15 12 12 12 12 12 15 15 15 15 15 15 15 15 15 17 20 25 38 0 0 0 0 0 0 0 0 0 0 0 0 0 0 0 0 0 0 0 0 0 0 0 0 0 0 0 0 0 0 0 0 0 28 20 20 25 12 10 7 7 7 5 5 5 5 5 5 5 5 5 5 2 2 2
0 0 2 5 5 5 5 5 5 5 5 5 5 5 5 5 5 5 7 7 7 7 10 12 15 12 12 12 12 12 12 10 10 10 12 12 12 12 12 15 15 15 20 109 58 0 0 0 0 0 0 0 0 0 0 0 0 0 0 0 0 0 0 0 0 0 0 0 0 0 0 0 0 0 0 0 0 35 25 17 15 12 10 10 7 7 7 5 5 5 5 5 5 5 5 5 5 2 2 2
0 0 2 2 5 5 5 5 5 5 5 5 5 5 5 5 5 5 5 5 7 7 7 7 10 10 10 10 10 10 10 10 10 10 10 10 12 12 12 12 12 15 17 53 76 43 38 219 0 0 0 0 0 0 0 0 0 0 0 0 0 0 0 0 0 0 0 0 0 0 0 0 0 0 0 0 43 28 20 15 12 12 10 10 7 7 5 5 5 5 5 5 5 5 5 5 2 2 2 2
0 0 0 2 5 5 5 5 5 5 5 5 5 5 5 5 5 5 5 5 5 5 7 7 7 7 10 10 10 10 10 10 10 10 10 10 10 10 12 12 12 12 15 17 22 30 28 66 0 0 0 0 0 0 0 0 0 0 0 0 0 0 0 0 0 0 0 0 0 0 0 0 0 0 0 0 0 43 25 15 12 12 10 10 7 7 5 5 5 5 5 5 5 5 5 5 2 2 2 2
0 0 0 2 2 5 5 5 5 5 5 5 5 5 5 5 5 5 5 5 5 5 5 5 7 7 7 7 10 10 10 10 10 10 10 10 10 10 10 12 12 12 12 15 17 20 22 30 71 0 0 0 0 0 0 0 0 0 0 0 0 0 0 0 0 0 0 0 0 0 0 0 0 0 0 0 0 150 28 17 12 10 10 7 7 7 5 5 5 5 5 5 5 5 5 2 2 2 2 2
0 0 0 2 2 5 5 5 5 5 5 5 5 5 5 5 5 5 5 5 5 5 5 5 5 5 7 7 7 7 10 10 10 10 10 10 10 10 10 10 12 12 12 12 15 17 20 81 0 0 0 76 0 0 0 0 0 0 0 0 0 0 0 0 0 0 0 0 0 0 0 0 127 40 94 0 0 0 33 43 12 10 10 7 7 5 5 5 5 5 5 5 5 5 5 2 2 2 2 2
0 0 0 2 2 2 5 5 5 5 5 5 5 5 5 5 5 5 5 5 5 5 5 5 5 5 5 7 7 7 7 7 7 10 10 10 10 10 10 10 10 12 12 12 15 17 22 33 91 0 0 51 0 114 0 0 0 0 0 0 0 0 0 0 0 0 0 0 0 0 0 89 0 28 35 232 40 48 68 25 15 10 10 7 7 5 5 5 5 5 5 5 5 5 2 2 2 2 2 2
0 0 0 0 2 2 5 5 5 5 5 5 5 5 5 5 5 5 5 5 5 5 5 5 5 5 5 5 5 7 7 7 7 7 7 10 10 10 10 10 10 10 12 12 15 17 45 43 114 61 91 30 30 86 0 73 0 0 0 0 0 0 0 0 0 0 0 0 0 53 0 135 25 22 25 28 22 25 43 20 15 10 7 7 5 5 5 5 5 5 5 5 5 5 2 2 2 2 2 2
0 0 0 0 2 2 2 5 5 5 5 5 5 5 5 5 5 5 5 5 5 5 5 5 5 5 5 5 5 5 7 7 7 7 7 7 7 7 10 10 10 10 10 12 12 17 25 73 68 30 25 22 22 48 76 35 0 150 247 76 0 170 0 130 0 0 53 43 0 30 53 99 20 17 17 17 17 20 35 15 12 10 7 7 5 5 5 5 5 5 5 5 5 2 2 2 2 2 2 2
0 0 0 0 2 2 2 5 5 5 5 5 5 5 5 5 5 5 5 5 5 5 5 5 5 5 5 5 5 5 5 7 7 7 7 7 7 7 7 7 10 10 10 10 12 20 40 22 25 35 20 17 20 35 30 25 25 28 35 68 0 0 0 0 0 43 30 28 22 20 25 20 17 15 15 15 15 17 48 12 10 7 7 5 5 5 5 5 5 5 5 5 5 2 2 2 2 2 2 2
0 0 0 0 0 2 2 2 5 5 5 5 5 5 5 5 5 5 5 5 5 5 5 5 5 5 5 5 5 5 5 5 7 7 7 7 7 7 7 7 7 7 10 10 10 12 15 15 15 17 15 15 15 17 17 20 22 25 45 0 0 0 0 0 0 0 30 22 20 17 17 15 12 12 12 12 12 12 12 10 7 7 7 5 5 5 5 5 5 5 5 5 2 2 2 2 2 2 2 2
0 0 0 0 0 2 2 2 2 5 5 5 5 5 5 5 5 5 5 5 5 5 5 5 5 5 5 5 5 5 5 5 5 7 7 7 7 7 7 7 7 7 7 7 10 10 10 12 12 12 12 12 15 15 15 17 20 28 63 0 0 0 0 0 0 0 61 22 17 15 15 12 12 12 12 10 10 10 10 7 7 7 5 5 5 5 5 5 5 5 5 2 2 2 2 2 2 2 2 2
0 0 0 0 0 0 2 2 2 2 5 5 5 5 5 5 5 5 5 5 5 5 5 5 5 5 5 5 5 5 5 5 5 5 5 7 7 7 7 7 7 7 7 7 7 7 10 10 10 12 12 12 12 15 15 15 17 25 48 0 0 0 0 0 0 0 33 20 17 15 12 12 10 10 10 10 10 10 7 7 7 7 5 5 5 5 5 5 5 5 2 2 2 2 2 2 2 2 2 2
0 0 0 0 0 0 2 2 2 2 5 5 5 5 5 5 5 5 5 5 5 5 5 5 5 5 5 5 5 5 5 5 5 5 5 5 7 7 7 7 7 7 7 7 7 7 7 10 10 10 10 12 12 12 15 15 17 22 38 0 0 0 0 0 0 0 45 28 15 12 12 10 10 10 10 10 7 7 7 7 7 5 5 5 5 5 5 5 5 5 2 2 2 2 2 2 2 2 2 2
0 0 0 0 0 0 0 2 2 2 2 5 5 5 5 5 5 5 5 5 5 5 5 5 5 5 5 5 5 5 5 5 5 5 5 5 5 7 7 7 7 7 7 7 7 7 7 7 7 10 10 10 10 12 12 15 20 33 58 73 102 0 0 0 66 33 84 22 15 12 10 10 10 10 10 7 7 7 7 7 5 5 5 5 5 5 5 5 5 2 2 2 2 2 2 2 2 2 2 2
0 0 0 0 0 0 0 2 2 2 2 2 5 5 5 5 5 5 5 5 5 5 5 5 5 5 5 5 5 5 5 5 5 5 5 5 5 5 7 7 7 7 7 7 7 7 7 7 7 7 10 10 10 10 10 12 17 20 43 28 33 56 0 0 33 25 22 25 12 10 10 10 10 7 7 7 7 7 7 7 5 5 5 5 5 5 5 5 2 2 2 2 2 2 2 2 2 2 2 2
0 0 0 0 0 0 0 2 2 2 2 2 2 5 5 5 5 5 5 5 5 5 5 5 5 5 5 5 5 5 5 5 5 5 5 5 5 5 5 7 7 7 7 7 7 7 7 7 7 7 7 10 10 10 10 10 12 15 20 20 28 61 73 53 40 20 17 15 12 10 10 10 7 7 7 7 7 7 7 5 5 5 5 5 5 5 5 2 2 2 2 2 2 2 2 2 2 2 2 2
0 0 0 0 0 0 0 0 2 2 2 2 2 2 5 5 5 5 5 5 5 5 5 5 5 5 5 5 5 5 5 5 5 5 5 5 5 5 5 5 5 7 7 7 7 7 7 7 7 7 7 7 10 10 10 10 10 12 15 17 20 25 53 45 22 17 15 12 10 10 10 7 7 7 7 7 7 7 5 5 5 5 5 5 5 5 2 2 2 2 2 2 2 2 2 2 2 2 2 2
0 0 0 0 0 0 0 0 0 2 2 2 2 2 2 5 5 5 5 5 5 5 5 5 5 5 5 5 5 5 5 5 5 5 5 5 5 5 5 5 5 5 7 7 7 7 7 7 7 7 7 7 7 10 10 10 10 12 15 15 17 22 30 38 22 20 15 12 10 10 7 7 7 7 7 7 7 5 5 5 5 5 5 5 5 2 2 2 2 2 2 2 2 2 2 2 2 2 2 2
0 0 0 0 0 0 0 0 0 2 2 2 2 2 2 2 2 5 5 5 5 5 5 5 5 5 5 5 5 5 5 5 5 5 5 5 5 5 5 5 5 5 5 7 7 7 7 7 7 7 7 7 7 7 10 10 10 10 12 15 17 22 45 25 40 33 15 12 10 7 7 7 7 7 7 7 5 5 5 5 5 5 5 2 2 2 2 2 2 2 2 2 2 2 2 2 2 2 2 2
0 0 0 0 0 0 0 0 0 0 2 2 2 2 2 2 2 2 5 5 5 5 5 5 5 5 5 5 5 5 5 5 5 5 5 5 5 5 5 5 5 5 5 5 5 7 7 7 7 7 7 7 7 7 10 10 10 10 12 15 25 30 22 17 15 20 17 10 7 7 7 7 7 7 7 5 5 5 5 5 5 5 2 2 2 2 2 2 2 2 2 2 2 2 2 2 2 2 2 2
0 0 0 0 0 0 0 0 0 0 2 2 2 2 2 2 2 2 2 5 5 5 5 5 5 5 5 5 5 5 5 5 5 5 5 5 5 5 5 5 5 5 5 5 5 5 7 7 7 7 7 7 7 7 7 10 10 10 12 12 22 43 15 12 12 12 10 7 7 7 7 7 7 7 5 5 5 5 5 5 5 2 2 2 2 2 2 2 2 2 2 2 2 2 2 2 2 2 2 2
0 0 0 0 0 0 0 0 0 0 0 2 2 2 2 2 2 2 2 2 2 5 5 5 5 5 5 5 5 5 5 5 5 5 5 5 5 5 5 5 5 5 5 5 5 5 5 5 7 7 7 7 7 7 7 7 10 10 12 15 25 17 12 12 10 10 7 7 7 7 7 7 5 5 5 5 5 5 5 2 2 2 2 2 2 2 2 2 2 2 2 2 2 2 2 2 2 2 2 2
0 0 0 0 0 0 0 0 0 0 0 0 2 2 2 2 2 2 2 2 2 2 2 5 5 5 5 5 5 5 5 5 5 5 5 5 5 5 5 5 5 5 5 5 5 5 5 5 5 5 7 7 7 7 7 7 7 10 12 20 17 20 10 10 10 7 7 7 7 7 7 5 5 5 5 5 5 2 2 2 2 2 2 2 2 2 2 2 2 2 2 2 2 2 2 2 2 2 2 2
0 0 0 0 0 0 0 0 0 0 0 0 2 2 2 2 2 2 2 2 2 2 2 2 5 5 5 5 5 5 5 5 5 5 5 5 5 5 5 5 5 5 5 5 5 5 5 5 5 5 5 5 7 7 7 7 7 7 7 10 10 10 10 10 7 7 7 7 7 5 5 5 5 5 5 5 2 2 2 2 2 2 2 2 2 2 2 2 2 2 2 2 2 2 2 2 2 2 2 2
0 0 0 0 0 0 0 0 0 0 0 0 0 2 2 2 2 2 2 2 2 2 2 2 2 2 5 5 5 5 5 5 5 5 5 5 5 5 5 5 5 5 5 5 5 5 5 5 5 5 5 5 5 5 5 5 7 7 7 7 7 7 7 7 7 5 5 5 5 5 5 5 5 5 2 2 2 2 2 2 2 2 2 2 2 2 2 2 2 2 2 2 2 2 2 2 2 2 2 2
0 0 0 0 0 0 0 0 0 0 0 0 0 0 2 2 2 2 2 2 2 2 2 2 2 2 2 2 2 5 5 5 5 5 5 5 5 5 5 5 5 5 5 5 5 5 5 5 5 5 5 5 5 5 5 5 5 5 5 5 5 5 5 5 5 5 5 5 5 5 5 2 2 2 2 2 2 2 2 2 2 2 2 2 2 2 2 2 2 2 2 2 2 2 2 2 2 2 2 2
0 0 0 0 0 0 0 0 0 0 0 0 0 0 2 2 2 2 2 2 2 2 2 2 2 2 2 2 2 2 2 5 5 5 5 5 5 5 5 5 5 5 5 5 5 5 5 5 5 5 5 5 5 5 5 5 5 5 5 5 5 5 5 5 5 5 5 5 5 2 2 2 2 2 2 2 2 2 2 2 2 2 2 2 2 2 2 2 2 2 2 2 2 2 2 2 2 2 2 2
0 0 0 0 0 0 0 0 0 0 0 0 0 0 0 2 2 2 2 2 2 2 2 2 2 2 2 2 2 2 2 2 2 2 5 5 5 5 5 5 5 5 5 5 5 5 5 5 5 5 5 5 5 5 5 5 5 5 5 5 5 5 5 5 5 5 2 2 2 2 2 2 2 2 2 2 2 2 2 2 2 2 2 2 2 2 2 2 2 2 2 2 2 2 2 2 2 2 2 2
0 0 0 0 0 0 0 0 0 0 0 0 0 0 0 0 2 2 2 2 2 2 2 2 2 2 2 2 2 2 2 2 2 2 2 2 2 2 5 5 5 5 5 5 5 5 5 5 5 5 5 5 5 5 5 5 5 5 5 5 5 5 2 2 2 2 2 2 2 2 2 2 2 2 2 2 2 2 2 2 2 2 2 2 2 2 2 2 2 2 2 2 2 2 2 2 2 2 2 2
0 0 0 0 0 0 0 0 0 0 0 0 0 0 0 0 0 2 2 2 2 2 2 2 2 2 2 2 2 2 2 2 2 2 2 2 2 2 2 2 2 2 2 2 2 2 5 5 5 5 5 5 5 5 2 2 2 2 2 2 2 2 2 2 2 2 2 2 2 2 2 2 2 2 2 2 2 2 2 2 2 2 2 2 2 2 2 2 2 2 2 2 2 2 2 2 2 2 2 2
0 0 0 0 0 0 0 0 0 0 0 0 0 0 0 0 0 0 2 2 2 2 2 2 2 2 2 2 2 2 2 2 2 2 2 2 2 2 2 2 2 2 2 2 2 2 2 2 2 2 2 2 2 2 2 2 2 2 2 2 2 2 2 2 2 2 2 2 2 2 2 2 2 2 2 2 2 2 2 2 2 2 2 2 2 2 2 2 2 2 2 2 2 2 2 2 2 2 2 2
0 0 0 0 0 0 0 0 0 0 0 0 0 0 0 0 0 0 0 2 2 2 2 2 2 2 2 2 2 2 2 2 2 2 2 2 2 2 2 2 2 2 2 2 2 2 2 2 2 2 2 2 2 2 2 2 2 2 2 2 2 2 2 2 2 2 2 2 2 2 2 2 2 2 2 2 2 2 2 2 2 2 2 2 2 2 2 2 2 2 2 2 2 2 2 2 2 2 2 2
0 0 0 0 0 0 0 0 0 0 0 0 0 0 0 0 0 0 0 0 2 2 2 2 2 2 2 2 2 2 2 2 2 2 2 2 2 2 2 2 2 2 2 2 2 2 2 2 2 2 2 2 2 2 2 2 2 2 2 2 2 2 2 2 2 2 2 2 2 2 2 2 2 2 2 2 2 2 2 2 2 2 2 2 2 2 2 2 2 2 2 2 2 2 2 2 2 2 2 2
0 0 0 0 0 0 0 0 0 0 0 0 0 0 0 0 0 0 0 0 0 2 2 2 2 2 2 2 2 2 2 2 2 2 2 2 2 2 2 2 2 2 2 2 2 2 2 2 2 2 2 2 2 2 2 2 2 2 2 2 2 2 2 2 2 2 2 2 2 2 2 2 2 2 2 2 2 2 2 2 2 2 2 2 2 2 2 2 2 2 2 2 2 2 2 2 2 2 2 2
0 0 0 0 0 0 0 0 0 0 0 0 0 0 0 0 0 0 0 0 0 0 2 2 2 2 2 2 2 2 2 2 2 2 2 2 2 2 2 2 2 2 2 2 2 2 2 2 2 2 2 2 2 2 2 2 2 2 2 2 2 2 2 2 2 2 2 2 2 2 2 2 2 2 2 2 2 2 2 2 2 2 2 2 2 2 2 2 2 2 2 2 2 2 2 2 2 2 2 2
0 0 0 0 0 0 0 0 0 0 0 0 0 0 0 0 0 0 0 0 0 0 0 2 2 2 2 2 2 2 2 2 2 2 2 2 2 2 2 2 2 2 2 2 2 2 2 2 2 2 2 2 2 2 2 2 2 2 2 2 2 2 2 2 2 2 2 2 2 2 2 2 2 2 2 2 2 2 2 2 2 2 2 2 2 2 2 2 2 2 2 2 2 2 2 2 2 2 2 2
